www/assets/icons/rv_hookup.svg

<svg width="24" height="24" viewBox="0 0 24 24" xmlns="http://www.w3.org/2000/svg" fill='currentColor'><path d="M19 17V11C19 9.9 18.1 9 17 9H6V7L3 10L6 13V11H10V14H3V17C3 18.1 3.9 19 5 19H7C7 20.66 8.34 22 10 22C11.66 22 13 20.66 13 19H21V17H19ZM10 20C9.45 20 9 19.55 9 19C9 18.45 9.45 18 10 18C10.55 18 11 18.45 11 19C11 19.55 10.55 20 10 20ZM17 14H13V11H17V14ZM16 2V4H8V6H16V8L19 5L16 2Z"/></svg>

<svg xmlns="http://www.w3.org/2000/svg" width="24" height="24" viewBox="0 0 24 24" fill='currentColor'><path d="M19 17v-6c0-1.1-.9-2-2-2H6V7l-3 3 3 3v-2h4v3H3v3c0 1.1.9 2 2 2h2c0 1.66 1.34 3 3 3s3-1.34 3-3h8v-2zm-9 3c-.55 0-1-.45-1-1s.45-1 1-1 1 .45 1 1-.45 1-1 1m7-6h-4v-3h4zM16 2v2H8v2h8v2l3-3z"/></svg>
